X:10
T:Crossing the Minch
M:4/4
L:1/8
R:Hornpipe
C:P.M. Donald Shaw Ramsay
K:D
Ad "A"|\
"D"fA ~A2 f2 ef | "G"gB ~B2 g2 af |\
"D"fA ~A2 f2 ef | "G"gBed dcde |
"D"fA ~A2 f2 ef | "G"gB ~B2 g2 af |\
"D"fgaf "A7"gecd | "A"e2 "G"d2 "D"d2 :|
|: Ad "B"|\
"D"fA ~A2 fgaf | "G"gB ~B2 gaag |\
"D"fA ~A2 fgaf | "G"gB ed dcde |
"D"fA ~A2 fgaf | "G"gB ~B2 g2 af |\
"D"fgaf "A7"gecd | "A"e2 "G"d2 "D"d2 :|
|: Ad "C"|\
"D"fA ~A2 fAef | "G"gB ~B2 gBag |\
"D"fA ~A2 fAef | "G"gB ed dcde |
"D"fA ~A2 fAef | "G"gB ~B2 g2 af |\
"D"fgaf "A7"gecd | "A"e2 "G"d2 "D"d2 :|
|: Ad "D"|\
"D"fA ~A2 fA ~A2 | "G"gA ~A2 gA ~A2 |\
"D"fA ~A2 fA ~A2 | "A"efed dcde |
"D"fA ~A2 fA ~A2 | "G"gA ~A2 g2 af |\
"D"fgaf "A7"gecd | "A"e2 "G"d2 "D"d2 :|
